Newaita-dark/apps/32/media-optical-audio-new.svg

<svg height="32" viewBox="0 0 32 32" width="32" xmlns="http://www.w3.org/2000/svg" xmlns:xlink="http://www.w3.org/1999/xlink"><linearGradient id="a"><stop offset="0" stop-opacity=".313726"/><stop offset=".222222" stop-opacity=".27451"/><stop offset="1" stop-opacity="0"/></linearGradient><radialGradient id="b" cx="450.908936" cy="189.579361" gradientTransform="matrix(.00000017 -.0781325 -.140638 -.0000001 44.523152 63.595329)" gradientUnits="userSpaceOnUse" r="21.166656" xlink:href="#a"/><radialGradient id="c" cx="450.908936" cy="189.579361" gradientTransform="matrix(-.00000017 .0781325 .140638 .0000001 -12.770119 -7.527482)" gradientUnits="userSpaceOnUse" r="21.166656" xlink:href="#a"/><radialGradient id="d" cx="450.908936" cy="189.579361" gradientTransform="matrix(-.00000017 -.0781325 .140638 -.0000001 -12.770119 63.595329)" gradientUnits="userSpaceOnUse" r="21.166656" xlink:href="#a"/><radialGradient id="e" cx="450.908936" cy="189.579361" gradientTransform="matrix(.00000017 .0781325 -.140638 .0000001 44.52315 -7.527483)" gradientUnits="userSpaceOnUse" r="21.166656" xlink:href="#a"/><linearGradient id="f" gradientTransform="matrix(.0133601 0 0 .062506 12.465386 13.438784)" gradientUnits="userSpaceOnUse" x1="255.323059" x2="255.323044" y1="233.5" y2="254.666656"><stop offset="0" stop-opacity=".27451"/><stop offset="1" stop-opacity="0"/></linearGradient><linearGradient id="g" gradientUnits="userSpaceOnUse" x1="15.876524" x2="15.876524" y1="2.89610399997" y2="28.033934"><stop offset="0" stop-color="#e0e0e0"/><stop offset="1" stop-color="#bdbdbd"/></linearGradient><linearGradient id="h" gradientUnits="userSpaceOnUse" x1="15.87648" x2="15.87648" y1="28.03386419623" y2="21.74942419623"><stop offset="0" stop-color="#26c6da"/><stop offset="1" stop-color="#4dd0e1"/></linearGradient><linearGradient id="i" gradientUnits="userSpaceOnUse" x1="960.000112" x2="960.000112" y1="1255.11822698163" y2="615.118112"><stop offset="0" stop-color="#f5f5f5"/><stop offset="1" stop-color="#e0e0e0"/></linearGradient><filter id="j" height="100%" width="100%" x="0%" y="0%"><feColorMatrix in="SourceGraphic" type="matrix" values="0 0 0 0 1 0 0 0 0 1 0 0 0 0 1 0 0 0 1 0"/></filter><mask id="k"><g filter="url(#j)"><path d="m0 0h32v32h-32z" fill-opacity=".99"/></g></mask><clipPath id="l"><path d="m0 0h32v32h-32z"/></clipPath><mask id="m"><g filter="url(#j)"><path d="m0 0h32v32h-32z" fill-opacity=".99"/></g></mask><clipPath id="n"><path d="m0 0h32v32h-32z"/></clipPath><mask id="o"><g filter="url(#j)"><path d="m0 0h32v32h-32z" fill-opacity=".99"/></g></mask><clipPath id="p"><path d="m0 0h32v32h-32z"/></clipPath><mask id="q"><g filter="url(#j)"><path d="m0 0h32v32h-32z" fill-opacity=".99"/></g></mask><clipPath id="r"><path d="m0 0h32v32h-32z"/></clipPath><path d="m18.191406 28.035156h2.648438v-1.324218h-2.648438zm0 0" fill="url(#b)"/><path d="m13.5625 28.035156h-2.648438v1.320313h2.648438zm0 0" fill="url(#c)"/><path d="m13.5625 28.035156h-2.648438v-1.324218h2.648438zm0 0" fill="url(#d)"/><path d="m18.191406 28.035156h2.648438v1.320313h-2.648438zm0 0" fill="url(#e)"/><path d="m13.5625 27.703125h4.628906v1.652344h-4.628906zm0 0" fill="url(#f)"/><path d="m15.875 2.894531c-6.960938 0-12.566406 5.605469-12.566406 12.570313s5.605468 12.570312 12.566406 12.570312c6.964844 0 12.570312-5.605468 12.570312-12.570312s-5.605468-12.570313-12.570312-12.570313zm0 9.925781c1.46875 0 2.648438 1.179688 2.648438 2.644532s-1.179688 2.644531-2.648438 2.644531c-1.464844 0-2.644531-1.179687-2.644531-2.644531s1.179687-2.644532 2.644531-2.644532zm0 0" fill="url(#g)"/><path d="m15.875 22.578125c-.207031 0-.410156.164063-.660156.496094-.828125 1.15625-1.355469 1.820312-1.324219 2.644531v2.160156c.648437.101563 1.308594.15625 1.984375.15625s1.339844-.054687 1.984375-.15625v-2.160156c0-.828125-.496094-1.488281-1.320313-2.644531-.25-.332031-.457031-.496094-.664062-.496094zm0 0" fill="url(#h)"/><path d="m15.875 28.035156c-6.960938 0-12.566406-5.605468-12.566406-12.570312 0-.039063 0-.082032 0-.121094.066406 6.902344 5.644531 12.445312 12.566406 12.445312s12.503906-5.542968 12.570312-12.445312v.121094c0 6.964844-5.605468 12.570312-12.570312 12.570312zm0 0" fill-opacity=".196078"/><path d="m15.875 2.894531c-6.960938 0-12.566406 5.605469-12.566406 12.570313v.125c.066406-6.90625 5.644531-12.449219 12.566406-12.449219s12.503906 5.542969 12.570312 12.449219c0-.042969 0-.082032 0-.125 0-6.964844-5.605468-12.570313-12.570312-12.570313zm0 0" fill="#fff" fill-opacity=".588235"/><path d="m15.875 2.800781c-7.011719 0-12.660156 5.652344-12.660156 12.664063 0 7.011718 5.648437 12.664062 12.660156 12.664062 7.015625 0 12.664062-5.652344 12.664062-12.664062 0-7.011719-5.648437-12.664063-12.664062-12.664063zm0 .1875c6.914062 0 12.476562 5.5625 12.476562 12.476563 0 6.914062-5.5625 12.476562-12.476562 12.476562-6.910156 0-12.472656-5.5625-12.472656-12.476562 0-6.914063 5.5625-12.476563 12.472656-12.476563zm0 0" fill="#212121"/><path d="m7.425781 7.011719c-.707031.71875-1.320312 1.527343-1.824219 2.398437-.503906.875-.894531 1.808594-1.167968 2.777344l2.679687.71875c.410157-1.484375 1.191407-2.835938 2.269531-3.933594zm2.457031 2.457031c-.992187 1.011719-1.710937 2.257812-2.085937 3.621094l5.699219 1.527344c.113281-.363282.304687-.695313.5625-.972657zm8.394532 6.613281c-.054688.179688-.132813.355469-.226563.515625-.09375.164063-.207031.316406-.332031.457032l4.179688 4.179687c.988281-1.011719 1.707031-2.261719 2.082031-3.625zm6.386718 1.710938c-.410156 1.484375-1.191406 2.835937-2.269531 3.9375l1.957031 1.957031c.707032-.71875 1.316407-1.527344 1.820313-2.402344.503906-.871094.898437-1.804687 1.167969-2.773437zm0 0" fill="#fff" fill-opacity=".588235"/><path d="m959.908384 615.059407c-177.148447 0-319.811996 142.663549-319.811996 320.048194s142.663549 320.048194 319.811996 320.048194c177.384645 0 320.048194-142.663549 320.048194-320.048194s-142.663549-320.048194-320.048194-320.048194zm0 160.142196c88.810421 0 160.142196 71.331775 160.142196 159.905998 0 88.574224-71.331775 159.905998-160.142196 159.905998-88.574224 0-159.905998-71.331774-159.905998-159.905998 0-88.574223 71.331774-159.905998 159.905998-159.905998zm0 0" fill="url(#i)" stroke="#333" stroke-linecap="round" stroke-width="11.338583" transform="scale(.016538)"/><path d="m15.875 22.578125c-.207031 0-.410156.164063-.660156.496094-.828125 1.15625-1.355469 1.820312-1.324219 2.644531v.371094c.027344-.765625.539063-1.421875 1.324219-2.519532.25-.332031.453125-.496093.660156-.496093s.414062.164062.664062.496093c.824219 1.15625 1.320313 1.816407 1.320313 2.644532v-.496094c0-.828125-.496094-1.488281-1.320313-2.644531-.25-.332031-.457031-.496094-.664062-.496094zm0 0" fill="#fff" fill-opacity=".392157"/><path d="m959.908384 1365.22403c-12.51849 0-24.800783 9.920313-39.91745 29.997137-50.073961 69.914587-81.960682 110.068235-80.071098 159.905998v130.617455c39.208856 6.141146 79.126306 9.447917 119.988548 9.447917s81.015889-3.306771 119.988548-9.447917v-130.617455c0-50.073961-29.997137-89.991411-79.8349-159.905998-15.116668-20.076824-27.635158-29.997137-40.153648-29.997137zm0 0" fill="none" stroke="#212121" stroke-linecap="square" stroke-linejoin="bevel" stroke-width="11.338583" transform="scale(.016538)"/><path d="m13.890625 25.59375v.125zm0 1.777344v.507812c.648437.101563 1.308594.15625 1.984375.15625s1.339844-.054687 1.984375-.15625v-.507812c-.644531.101562-1.308594.15625-1.984375.15625s-1.335938-.054688-1.984375-.15625zm0 0" fill-opacity=".235294"/><g clip-path="url(#l)" mask="url(#k)"><path d="m15.875 24.726562c.550781 0 .992188.445313.992188.992188s-.441407.992188-.992188.992188c-.546875 0-.992188-.445313-.992188-.992188s.445313-.992188.992188-.992188zm0 0" fill-opacity=".117647"/></g><g clip-path="url(#n)" mask="url(#m)"><path d="m15.875 24.726562c-.546875 0-.992188.441407-.992188.992188 0 .054688.007813.113281.015626.164062.078124-.46875.484374-.824218.976562-.824218.496094 0 .902344.355468.980469.824218.007812-.050781.011719-.109374.011719-.164062 0-.550781-.441407-.992188-.992188-.992188zm0 0" fill-opacity=".235294"/></g><g clip-path="url(#p)" mask="url(#o)"><path d="m15.875 27.042969c-.546875 0-.992188-.445313-.992188-.992188 0-.058593.007813-.113281.015626-.167969.078124.472657.484374.828126.976562.828126.496094 0 .902344-.355469.980469-.828126.007812.054688.011719.109376.011719.167969 0 .546875-.441407.992188-.992188.992188zm0 0" fill="#fff" fill-opacity=".392157"/></g><g clip-path="url(#r)" mask="url(#q)"><path d="m253.975747 180.587223c8.811658 0 15.873484 7.12432 15.873484 15.873484 0 8.749165-7.061826 15.873485-15.873484 15.873485-8.749165 0-15.873485-7.12432-15.873485-15.873485 0-8.749164 7.12432-15.873484 15.873485-15.873484zm0 0" fill="none" stroke="#212121" stroke-linecap="round" stroke-linejoin="round" stroke-width="3" transform="matrix(.062506 0 0 .062506 0 13.438783)"/></g></svg>

<?xml version="1.0" encoding="UTF-8"?>
<svg xmlns="http://www.w3.org/2000/svg" xmlns:xlink="http://www.w3.org/1999/xlink" width="32px" height="32px" viewBox="0 0 32 32" version="1.1">
<defs>
<radialGradient id="radial0" gradientUnits="userSpaceOnUse" cx="450.908936" cy="189.579361" fx="450.908936" fy="189.579361" r="21.166656" gradientTransform="matrix(0.00000017417,-0.0781325,-0.140638,-0.000000101539,44.523152,63.595329)">
<stop offset="0" style="stop-color:rgb(0%,0%,0%);stop-opacity:0.313726;"/>
<stop offset="0.222222" style="stop-color:rgb(0%,0%,0%);stop-opacity:0.27451;"/>
<stop offset="1" style="stop-color:rgb(0%,0%,0%);stop-opacity:0;"/>
</radialGradient>
<radialGradient id="radial1" gradientUnits="userSpaceOnUse" cx="450.908936" cy="189.579361" fx="450.908936" fy="189.579361" r="21.166656" gradientTransform="matrix(-0.00000017417,0.0781325,0.140638,0.000000101539,-12.770119,-7.527482)">
<stop offset="0" style="stop-color:rgb(0%,0%,0%);stop-opacity:0.313726;"/>
<stop offset="0.222222" style="stop-color:rgb(0%,0%,0%);stop-opacity:0.27451;"/>
<stop offset="1" style="stop-color:rgb(0%,0%,0%);stop-opacity:0;"/>
</radialGradient>
<radialGradient id="radial2" gradientUnits="userSpaceOnUse" cx="450.908936" cy="189.579361" fx="450.908936" fy="189.579361" r="21.166656" gradientTransform="matrix(-0.00000017417,-0.0781325,0.140638,-0.000000101539,-12.770119,63.595329)">
<stop offset="0" style="stop-color:rgb(0%,0%,0%);stop-opacity:0.313726;"/>
<stop offset="0.222222" style="stop-color:rgb(0%,0%,0%);stop-opacity:0.27451;"/>
<stop offset="1" style="stop-color:rgb(0%,0%,0%);stop-opacity:0;"/>
</radialGradient>
<radialGradient id="radial3" gradientUnits="userSpaceOnUse" cx="450.908936" cy="189.579361" fx="450.908936" fy="189.579361" r="21.166656" gradientTransform="matrix(0.00000017417,0.0781325,-0.140638,0.000000101539,44.52315,-7.527483)">
<stop offset="0" style="stop-color:rgb(0%,0%,0%);stop-opacity:0.313726;"/>
<stop offset="0.222222" style="stop-color:rgb(0%,0%,0%);stop-opacity:0.27451;"/>
<stop offset="1" style="stop-color:rgb(0%,0%,0%);stop-opacity:0;"/>
</radialGradient>
<linearGradient id="linear0" gradientUnits="userSpaceOnUse" x1="255.323059" y1="233.5" x2="255.323044" y2="254.666656" gradientTransform="matrix(0.0133601,0,0,0.062506,12.465386,13.438784)">
<stop offset="0" style="stop-color:rgb(0%,0%,0%);stop-opacity:0.27451;"/>
<stop offset="1" style="stop-color:rgb(0%,0%,0%);stop-opacity:0;"/>
</linearGradient>
<linearGradient id="linear1" gradientUnits="userSpaceOnUse" x1="254" y1="-168.666672" x2="254" y2="233.5" gradientTransform="matrix(0.062506,0,0,0.062506,0,13.438783)">
<stop offset="0" style="stop-color:rgb(87.843138%,87.843138%,87.843138%);stop-opacity:1;"/>
<stop offset="1" style="stop-color:rgb(74.117649%,74.117649%,74.117649%);stop-opacity:1;"/>
</linearGradient>
<linearGradient id="linear2" gradientUnits="userSpaceOnUse" x1="960" y1="1695.118164" x2="960" y2="1315.118164" gradientTransform="matrix(0.016538,0,0,0.016538,0,0)">
<stop offset="0" style="stop-color:rgb(14.901961%,77.64706%,85.490197%);stop-opacity:1;"/>
<stop offset="1" style="stop-color:rgb(30.19608%,81.568629%,88.235295%);stop-opacity:1;"/>
</linearGradient>
<linearGradient id="linear3" gradientUnits="userSpaceOnUse" x1="254" y1="117.083344" x2="254" y2="-52.25" gradientTransform="matrix(3.779528,0,0,3.779528,0,812.59845)">
<stop offset="0" style="stop-color:rgb(96.078432%,96.078432%,96.078432%);stop-opacity:1;"/>
<stop offset="1" style="stop-color:rgb(87.843138%,87.843138%,87.843138%);stop-opacity:1;"/>
</linearGradient>
<filter id="alpha" filterUnits="objectBoundingBox" x="0%" y="0%" width="100%" height="100%">
  <feColorMatrix type="matrix" in="SourceGraphic" values="0 0 0 0 1 0 0 0 0 1 0 0 0 0 1 0 0 0 1 0"/>
</filter>
<mask id="mask0">
  <g filter="url(#alpha)">
<rect x="0" y="0" width="32" height="32" style="fill:rgb(0%,0%,0%);fill-opacity:0.99;stroke:none;"/>
  </g>
</mask>
<clipPath id="clip1">
  <rect x="0" y="0" width="32" height="32"/>
</clipPath>
<g id="surface5" clip-path="url(#clip1)">
<path style=" stroke:none;fill-rule:nonzero;fill:rgb(0%,0%,0%);fill-opacity:0.117647;" d="M 15.875 24.726562 C 16.425781 24.726562 16.867188 25.171875 16.867188 25.71875 C 16.867188 26.265625 16.425781 26.710938 15.875 26.710938 C 15.328125 26.710938 14.882812 26.265625 14.882812 25.71875 C 14.882812 25.171875 15.328125 24.726562 15.875 24.726562 Z M 15.875 24.726562 "/>
</g>
<mask id="mask1">
  <g filter="url(#alpha)">
<rect x="0" y="0" width="32" height="32" style="fill:rgb(0%,0%,0%);fill-opacity:0.99;stroke:none;"/>
  </g>
</mask>
<clipPath id="clip2">
  <rect x="0" y="0" width="32" height="32"/>
</clipPath>
<g id="surface8" clip-path="url(#clip2)">
<path style=" stroke:none;fill-rule:nonzero;fill:rgb(0%,0%,0%);fill-opacity:0.235294;" d="M 15.875 24.726562 C 15.328125 24.726562 14.882812 25.167969 14.882812 25.71875 C 14.882812 25.773438 14.890625 25.832031 14.898438 25.882812 C 14.976562 25.414062 15.382812 25.058594 15.875 25.058594 C 16.371094 25.058594 16.777344 25.414062 16.855469 25.882812 C 16.863281 25.832031 16.867188 25.773438 16.867188 25.71875 C 16.867188 25.167969 16.425781 24.726562 15.875 24.726562 Z M 15.875 24.726562 "/>
</g>
<mask id="mask2">
  <g filter="url(#alpha)">
<rect x="0" y="0" width="32" height="32" style="fill:rgb(0%,0%,0%);fill-opacity:0.99;stroke:none;"/>
  </g>
</mask>
<clipPath id="clip3">
  <rect x="0" y="0" width="32" height="32"/>
</clipPath>
<g id="surface11" clip-path="url(#clip3)">
<path style=" stroke:none;fill-rule:nonzero;fill:rgb(100%,100%,100%);fill-opacity:0.392157;" d="M 15.875 27.042969 C 15.328125 27.042969 14.882812 26.597656 14.882812 26.050781 C 14.882812 25.992188 14.890625 25.9375 14.898438 25.882812 C 14.976562 26.355469 15.382812 26.710938 15.875 26.710938 C 16.371094 26.710938 16.777344 26.355469 16.855469 25.882812 C 16.863281 25.9375 16.867188 25.992188 16.867188 26.050781 C 16.867188 26.597656 16.425781 27.042969 15.875 27.042969 Z M 15.875 27.042969 "/>
</g>
<mask id="mask3">
  <g filter="url(#alpha)">
<rect x="0" y="0" width="32" height="32" style="fill:rgb(0%,0%,0%);fill-opacity:0.99;stroke:none;"/>
  </g>
</mask>
<clipPath id="clip4">
  <rect x="0" y="0" width="32" height="32"/>
</clipPath>
<g id="surface14" clip-path="url(#clip4)">
<path style="fill:none;stroke-width:3;stroke-linecap:round;stroke-linejoin:round;stroke:rgb(12.941177%,12.941177%,12.941177%);stroke-opacity:1;stroke-miterlimit:4;" d="M 253.975747 180.587223 C 262.787405 180.587223 269.849231 187.711543 269.849231 196.460707 C 269.849231 205.209872 262.787405 212.334192 253.975747 212.334192 C 245.226582 212.334192 238.102262 205.209872 238.102262 196.460707 C 238.102262 187.711543 245.226582 180.587223 253.975747 180.587223 Z M 253.975747 180.587223 " transform="matrix(0.062506,0,0,0.062506,0,13.438783)"/>
</g>
</defs>
<g id="surface1">
<path style=" stroke:none;fill-rule:nonzero;fill:url(#radial0);" d="M 18.191406 28.035156 L 20.839844 28.035156 L 20.839844 26.710938 L 18.191406 26.710938 Z M 18.191406 28.035156 "/>
<path style=" stroke:none;fill-rule:nonzero;fill:url(#radial1);" d="M 13.5625 28.035156 L 10.914062 28.035156 L 10.914062 29.355469 L 13.5625 29.355469 Z M 13.5625 28.035156 "/>
<path style=" stroke:none;fill-rule:nonzero;fill:url(#radial2);" d="M 13.5625 28.035156 L 10.914062 28.035156 L 10.914062 26.710938 L 13.5625 26.710938 Z M 13.5625 28.035156 "/>
<path style=" stroke:none;fill-rule:nonzero;fill:url(#radial3);" d="M 18.191406 28.035156 L 20.839844 28.035156 L 20.839844 29.355469 L 18.191406 29.355469 Z M 18.191406 28.035156 "/>
<path style=" stroke:none;fill-rule:nonzero;fill:url(#linear0);" d="M 13.5625 27.703125 L 18.191406 27.703125 L 18.191406 29.355469 L 13.5625 29.355469 Z M 13.5625 27.703125 "/>
<path style=" stroke:none;fill-rule:nonzero;fill:url(#linear1);" d="M 15.875 2.894531 C 8.914062 2.894531 3.308594 8.5 3.308594 15.464844 C 3.308594 22.429688 8.914062 28.035156 15.875 28.035156 C 22.839844 28.035156 28.445312 22.429688 28.445312 15.464844 C 28.445312 8.5 22.839844 2.894531 15.875 2.894531 Z M 15.875 12.820312 C 17.34375 12.820312 18.523438 14 18.523438 15.464844 C 18.523438 16.929688 17.34375 18.109375 15.875 18.109375 C 14.410156 18.109375 13.230469 16.929688 13.230469 15.464844 C 13.230469 14 14.410156 12.820312 15.875 12.820312 Z M 15.875 12.820312 "/>
<path style=" stroke:none;fill-rule:nonzero;fill:url(#linear2);" d="M 15.875 22.578125 C 15.667969 22.578125 15.464844 22.742188 15.214844 23.074219 C 14.386719 24.230469 13.859375 24.894531 13.890625 25.71875 L 13.890625 27.878906 C 14.539062 27.980469 15.199219 28.035156 15.875 28.035156 C 16.550781 28.035156 17.214844 27.980469 17.859375 27.878906 L 17.859375 25.71875 C 17.859375 24.890625 17.363281 24.230469 16.539062 23.074219 C 16.289062 22.742188 16.082031 22.578125 15.875 22.578125 Z M 15.875 22.578125 "/>
<path style=" stroke:none;fill-rule:nonzero;fill:rgb(0%,0%,0%);fill-opacity:0.196078;" d="M 15.875 28.035156 C 8.914062 28.035156 3.308594 22.429688 3.308594 15.464844 C 3.308594 15.425781 3.308594 15.382812 3.308594 15.34375 C 3.375 22.246094 8.953125 27.789062 15.875 27.789062 C 22.796875 27.789062 28.378906 22.246094 28.445312 15.34375 C 28.445312 15.382812 28.445312 15.425781 28.445312 15.464844 C 28.445312 22.429688 22.839844 28.035156 15.875 28.035156 Z M 15.875 28.035156 "/>
<path style=" stroke:none;fill-rule:nonzero;fill:rgb(100%,100%,100%);fill-opacity:0.588235;" d="M 15.875 2.894531 C 8.914062 2.894531 3.308594 8.5 3.308594 15.464844 C 3.308594 15.507812 3.308594 15.546875 3.308594 15.589844 C 3.375 8.683594 8.953125 3.140625 15.875 3.140625 C 22.796875 3.140625 28.378906 8.683594 28.445312 15.589844 C 28.445312 15.546875 28.445312 15.507812 28.445312 15.464844 C 28.445312 8.5 22.839844 2.894531 15.875 2.894531 Z M 15.875 2.894531 "/>
<path style=" stroke:none;fill-rule:nonzero;fill:rgb(12.941177%,12.941177%,12.941177%);fill-opacity:1;" d="M 15.875 2.800781 C 8.863281 2.800781 3.214844 8.453125 3.214844 15.464844 C 3.214844 22.476562 8.863281 28.128906 15.875 28.128906 C 22.890625 28.128906 28.539062 22.476562 28.539062 15.464844 C 28.539062 8.453125 22.890625 2.800781 15.875 2.800781 Z M 15.875 2.988281 C 22.789062 2.988281 28.351562 8.550781 28.351562 15.464844 C 28.351562 22.378906 22.789062 27.941406 15.875 27.941406 C 8.964844 27.941406 3.402344 22.378906 3.402344 15.464844 C 3.402344 8.550781 8.964844 2.988281 15.875 2.988281 Z M 15.875 2.988281 "/>
<path style=" stroke:none;fill-rule:nonzero;fill:rgb(100%,100%,100%);fill-opacity:0.588235;" d="M 7.425781 7.011719 C 6.71875 7.730469 6.105469 8.539062 5.601562 9.410156 C 5.097656 10.285156 4.707031 11.21875 4.433594 12.1875 L 7.113281 12.90625 C 7.523438 11.421875 8.304688 10.070312 9.382812 8.972656 Z M 9.882812 9.46875 C 8.890625 10.480469 8.171875 11.726562 7.796875 13.089844 L 13.496094 14.617188 C 13.609375 14.253906 13.800781 13.921875 14.058594 13.644531 Z M 18.277344 16.082031 C 18.222656 16.261719 18.144531 16.4375 18.050781 16.597656 C 17.957031 16.761719 17.84375 16.914062 17.71875 17.054688 L 21.898438 21.234375 C 22.886719 20.222656 23.605469 18.972656 23.980469 17.609375 Z M 24.664062 17.792969 C 24.253906 19.277344 23.472656 20.628906 22.394531 21.730469 L 24.351562 23.6875 C 25.058594 22.96875 25.667969 22.160156 26.171875 21.285156 C 26.675781 20.414062 27.070312 19.480469 27.339844 18.511719 Z M 24.664062 17.792969 "/>
<path style="fill-rule:nonzero;fill:url(#linear3);stroke-width:11.338583;stroke-linecap:round;stroke-linejoin:miter;stroke:rgb(20%,20%,20%);stroke-opacity:1;stroke-miterlimit:4;" d="M 959.908384 615.059407 C 782.759937 615.059407 640.096388 757.722956 640.096388 935.107601 C 640.096388 1112.492246 782.759937 1255.155795 959.908384 1255.155795 C 1137.293029 1255.155795 1279.956578 1112.492246 1279.956578 935.107601 C 1279.956578 757.722956 1137.293029 615.059407 959.908384 615.059407 Z M 959.908384 775.201603 C 1048.718805 775.201603 1120.05058 846.533378 1120.05058 935.107601 C 1120.05058 1023.681825 1048.718805 1095.013599 959.908384 1095.013599 C 871.33416 1095.013599 800.002386 1023.681825 800.002386 935.107601 C 800.002386 846.533378 871.33416 775.201603 959.908384 775.201603 Z M 959.908384 775.201603 " transform="matrix(0.016538,0,0,0.016538,0,0)"/>
<path style=" stroke:none;fill-rule:nonzero;fill:rgb(100%,100%,100%);fill-opacity:0.392157;" d="M 15.875 22.578125 C 15.667969 22.578125 15.464844 22.742188 15.214844 23.074219 C 14.386719 24.230469 13.859375 24.894531 13.890625 25.71875 L 13.890625 26.089844 C 13.917969 25.324219 14.429688 24.667969 15.214844 23.570312 C 15.464844 23.238281 15.667969 23.074219 15.875 23.074219 C 16.082031 23.074219 16.289062 23.238281 16.539062 23.570312 C 17.363281 24.726562 17.859375 25.386719 17.859375 26.214844 L 17.859375 25.71875 C 17.859375 24.890625 17.363281 24.230469 16.539062 23.074219 C 16.289062 22.742188 16.082031 22.578125 15.875 22.578125 Z M 15.875 22.578125 "/>
<path style="fill:none;stroke-width:11.338583;stroke-linecap:square;stroke-linejoin:bevel;stroke:rgb(12.941177%,12.941177%,12.941177%);stroke-opacity:1;stroke-miterlimit:4;" d="M 959.908384 1365.22403 C 947.389894 1365.22403 935.107601 1375.144343 919.990934 1395.221167 C 869.916973 1465.135754 838.030252 1505.289402 839.919836 1555.127165 L 839.919836 1685.74462 C 879.128692 1691.885766 919.046142 1695.192537 959.908384 1695.192537 C 1000.770626 1695.192537 1040.924273 1691.885766 1079.896932 1685.74462 L 1079.896932 1555.127165 C 1079.896932 1505.053204 1049.899795 1465.135754 1000.062032 1395.221167 C 984.945364 1375.144343 972.426874 1365.22403 959.908384 1365.22403 Z M 959.908384 1365.22403 " transform="matrix(0.016538,0,0,0.016538,0,0)"/>
<path style=" stroke:none;fill-rule:nonzero;fill:rgb(0%,0%,0%);fill-opacity:0.235294;" d="M 13.890625 25.59375 C 13.890625 25.636719 13.890625 25.675781 13.890625 25.71875 Z M 13.890625 27.371094 L 13.890625 27.878906 C 14.539062 27.980469 15.199219 28.035156 15.875 28.035156 C 16.550781 28.035156 17.214844 27.980469 17.859375 27.878906 L 17.859375 27.371094 C 17.214844 27.472656 16.550781 27.527344 15.875 27.527344 C 15.199219 27.527344 14.539062 27.472656 13.890625 27.371094 Z M 13.890625 27.371094 "/>
<use xlink:href="#surface5" mask="url(#mask0)"/>
<use xlink:href="#surface8" mask="url(#mask1)"/>
<use xlink:href="#surface11" mask="url(#mask2)"/>
<use xlink:href="#surface14" mask="url(#mask3)"/>
</g>
</svg>
